X:7
C:Traditional
S:The Pogues
K:A
M:3/4
L:1/8
AB | c3e ec | B4 AB | c2 a2 g2 | f4 fg |
a3f e2 | B4 AB | c3e ec | B4 AB |
c3e ec | B4 AB | c2 a2 g2 | f4 fg |
a3f e2 | B4 AB | (A6 | A4) :|
%%begintext
Arragned mandolin part
%%endtext
M:3/4
AB | cE dE cE | BA FG AB | cE ac gc | fe de fg |
ag fe dc | BA FG AB | cE dE cE | BA FG AB |
cE dE cE | BA FG AB | cE ac gc | fe de fg |
ag fe dc | BA FG AB | A3B AG | A4 :|
